src/components/00-materials/images-raw/Industry.svg

<svg width="96" height="96" viewBox="0 0 96 96" fill="none" xmlns="http://www.w3.org/2000/svg">
<path d="M77.32 43.47H68.33L69.86 17.54H75.79L77.32 43.47ZM69.64 22.9H76.01H69.64ZM69.64 26.45H76.01H69.64ZM19.15 18.74C19.4416 19.0251 19.8322 19.1863 20.24 19.19H34.17C34.0369 19.4382 33.9779 19.7193 34 20C34.0026 20.4076 34.1657 20.7978 34.4539 21.0861C34.7422 21.3743 35.1324 21.5374 35.54 21.54H54.73C55.1183 21.5088 55.4806 21.3324 55.7447 21.0461C56.0089 20.7598 56.1556 20.3846 56.1556 19.995C56.1556 19.6055 56.0089 19.2302 55.7447 18.9439C55.4806 18.6576 55.1183 18.4813 54.73 18.45H40.73C40.8631 18.2149 40.9353 17.9502 40.94 17.68C40.9374 17.2724 40.7743 16.8822 40.486 16.594C40.1978 16.3057 39.8076 16.1426 39.4 16.14H20.24C20.0378 16.1374 19.837 16.1746 19.6491 16.2496C19.4613 16.3245 19.29 16.4358 19.1452 16.5769C19.0003 16.718 18.8846 16.8863 18.8048 17.0722C18.725 17.258 18.6826 17.4578 18.68 17.66C18.6806 17.8685 18.7224 18.0748 18.8031 18.267C18.8837 18.4592 19.0016 18.6336 19.15 18.78V18.74ZM77.32 55.05V74.72C77.32 77.56 75.41 79.88 73.07 79.88H23C20.66 79.88 18.75 77.56 18.75 74.72V55.05H77.32Z" stroke="#00008F" stroke-width="2" stroke-linecap="round" stroke-linejoin="round"/>
<path d="M57.23 68.96H67.83V79.88H57.23V68.96Z" stroke="#00008F" stroke-width="2" stroke-linecap="round" stroke-linejoin="round"/>
<path d="M31.31 73.01C33.1657 73.01 34.67 71.5057 34.67 69.65C34.67 67.7944 33.1657 66.29 31.31 66.29C29.4543 66.29 27.95 67.7944 27.95 69.65C27.95 71.5057 29.4543 73.01 31.31 73.01Z" stroke="#00008F" stroke-width="2" stroke-linecap="round" stroke-linejoin="round"/>
<path d="M44.62 73.01C46.4757 73.01 47.98 71.5057 47.98 69.65C47.98 67.7944 46.4757 66.29 44.62 66.29C42.7643 66.29 41.26 67.7944 41.26 69.65C41.26 71.5057 42.7643 73.01 44.62 73.01Z" stroke="#00008F" stroke-width="2" stroke-linecap="round" stroke-linejoin="round"/>
<path d="M18.7 43.47H77.32V55.05H18.7V43.47Z" stroke="#00008F" stroke-width="2" stroke-linecap="round" stroke-linejoin="round"/>
</svg>

<svg width="96" height="96" viewBox="0 0 96 96" fill="none" xmlns="http://www.w3.org/2000/svg"><path d="M77.32 43.47h-8.99l1.53-25.93h5.93l1.53 25.93zM69.64 22.9h6.37-6.37zm0 3.55h6.37-6.37zm-50.49-7.71a1.58 1.58 0 001.09.45h13.93A1.47 1.47 0 0034 20a1.55 1.55 0 001.54 1.54h19.19a1.55 1.55 0 000-3.09h-14c.133-.235.205-.5.21-.77a1.55 1.55 0 00-1.54-1.54H20.24a1.54 1.54 0 00-1.56 1.52 1.58 1.58 0 00.47 1.12v-.04zm58.17 36.31v19.67c0 2.84-1.91 5.16-4.25 5.16H23c-2.34 0-4.25-2.32-4.25-5.16V55.05h58.57z" stroke="#00008F" stroke-width="2" stroke-linecap="round" stroke-linejoin="round"/><path d="M57.23 68.96h10.6v10.92h-10.6V68.96zM31.31 73.01a3.36 3.36 0 100-6.72 3.36 3.36 0 000 6.72zM44.62 73.01a3.36 3.36 0 100-6.72 3.36 3.36 0 000 6.72zM18.7 43.47h58.62v11.58H18.7V43.47z" stroke="#00008F" stroke-width="2" stroke-linecap="round" stroke-linejoin="round"/></svg>
